X:945
T:Mrs Dundas McQueen
S:Kerr's Merry Melodies
Z:Nigel Gatherer
M:4/4
L:1/8
K:A
a | cAec dBfd | cAec e/f/g ae | cAec dBfB | 
cA A/A/A f2 e :| g |: a/g/f/e/ ac dBfg | aeag f2 ef/g/ | 
aefc dBed |1 cA A/A/A f2 e :|2 cAAa faea |]
<end>
<start>
